src/assets/Icons/Icon-Linkedin2.svg

<svg width="24" height="24" viewBox="0 0 24 24" fill="none" xmlns="http://www.w3.org/2000/svg">
<path d="M11.5 9.05C12.417 8.113 13.611 7.5 15 7.5C16.4587 7.5 17.8576 8.07946 18.8891 9.11091C19.9205 10.1424 20.5 11.5413 20.5 13V20.5H18.5V13C18.5 12.0717 18.1313 11.1815 17.4749 10.5251C16.8185 9.86875 15.9283 9.5 15 9.5C14.0717 9.5 13.1815 9.86875 12.5251 10.5251C11.8687 11.1815 11.5 12.0717 11.5 13V20.5H9.5V8H11.5V9.05ZM4.5 6C4.10218 6 3.72064 5.84196 3.43934 5.56066C3.15804 5.27936 3 4.89782 3 4.5C3 4.10218 3.15804 3.72064 3.43934 3.43934C3.72064 3.15804 4.10218 3 4.5 3C4.89782 3 5.27936 3.15804 5.56066 3.43934C5.84196 3.72064 6 4.10218 6 4.5C6 4.89782 5.84196 5.27936 5.56066 5.56066C5.27936 5.84196 4.89782 6 4.5 6ZM3.5 8H5.5V20.5H3.5V8Z" fill="black"/>
</svg>

<svg xmlns="http://www.w3.org/2000/svg" width="24" height="24" fill="none" xmlns:v="https://vecta.io/nano"><path d="M11.5 9.05c.917-.937 2.111-1.55 3.5-1.55a5.5 5.5 0 0 1 5.5 5.5v7.5h-2V13A3.5 3.5 0 0 0 15 9.5a3.5 3.5 0 0 0-3.5 3.5v7.5h-2V8h2v1.05zM4.5 6A1.5 1.5 0 0 1 3 4.5 1.5 1.5 0 0 1 4.5 3 1.5 1.5 0 0 1 6 4.5 1.5 1.5 0 0 1 4.5 6zm-1 2h2v12.5h-2V8z" fill="#000"/></svg>
